X: 18
T:Kitty O'Connor
R:March
S:Dennis Alexander
Z:added by Alf 
M:2/4
L:1/16
K:D
|:D3D D2E2|F2G2 A2G2|F3F F2E2|F2G2 A2Bc|d3d d2B2|A2F2 D2E2|
F4 E4|[1 E6A2:|[2 D6A2|:d3d d2e2|f2d2 d2cB|A3B A2G2|F2G2 A2Bc|
[1 d3d d2e2|f2d2 d2A2|B2e2 e2f2|e4 A2Bc:|[2 d3d d2B2|A2F2 D2E2|F4 E4|D8|]
